X:1
T:Waldlied
T:Friedrich Hegar, Op. 13
T:Otto Haggenmacher
T:Waldlied
T:CPDL   —   Creative Commons Attribution Non Commercial 3.0
T:CPDL   —   Creative Commons Attribution Non Commercial 3.0
T:CPDL   —   Creative Commons Attribution Non Commercial 3.0
T:CPDL   —   Creative Commons Attribution Non Commercial 3.0
T:CPDL   —   Creative Commons Attribution Non Commercial 3.0
T:CPDL   —   Creative Commons Attribution Non Commercial 3.0
T:CPDL   —   Creative Commons Attribution Non Commercial 3.0
T:CPDL   —   Creative Commons Attribution Non Commercial 3.0
T:CPDL   —   Creative Commons Attribution Non Commercial 3.0
T:CPDL   —   Creative Commons Attribution Non Commercial 3.0
T:CPDL   —   Creative Commons Attribution Non Commercial 3.0
T:CPDL   —   Creative Commons Attribution Non Commercial 3.0
T:CPDL   —   Creative Commons Attribution Non Commercial 3.0
T:CPDL   —   Creative Commons Attribution Non Commercial 3.0
T:CPDL   —   Creative Commons Attribution Non Commercial 3.0
T:CPDL   —   Creative Commons Attribution Non Commercial 3.0
C:Friedrich Hegar
Z:Otto Haggenmacher
Z:CPDL   —   Creative Commons Attribution Non Commercial 3.0
%%score [ ( 1 2 ) ( 3 4 ) 5 ( 6 7 ) ]
L:1/8
Q:3/8=52
M:9/8
K:A
V:1 treble-8 nm="Tenor 1"
V:2 treble-8 
V:3 treble-8 nm="Tenor 2"
V:4 treble-8 
V:5 bass nm="Bass 1"
V:6 bass nm="Bass 2"
V:7 bass 
V:1
!p!"^Ziemlich ruhig." c2 c | e3- e2 e c2 c | e3 e2 z!<(! e2 e!<)! | (a2 g f2)!>(! e d2 c!>)! | %4
w: Grünt der|Lenz _ auf Flur und|Hal- de, glänzt der|Mai, _ _ der Mai im|
 e2 d B2 z!pp! c2 c | e3- e2 e c2 c | e3 e2 z!<(! c2 _d!<)! ||[K:Db]!mf! (f3- fe)d d2 d | %8
w: Son- nen- schein, schwillt das|jun- * ge Grün im|Wal- de, kehr im|Tann _ _ so gern ich|
!<(! (_c2 a-!<)! a)gf e2 d |!>(! d2 =c f3- f2!>)! e | d z z z2 z z2 z | z2 z!p! d3- d2 d | %12
w: ein, _ _ kehr im Tann so|gern, so gern _ ich|ein.|Rau- * schen|
!>(! (d2 B)!>)! A z z z2 z | z z!pp! B (d6- | d2 B) A z z ||[K:A]!p! c2 c | c2 B (d3- dc)B | %17
w: lin- * de,|die Win-|* * de,|durch die|Wip- fel rau- * * schen|
 c3 c2 z"^cresc." c2 c | c2 B (f3- fe)d |!<(! c3!<)! B z z!f![Q:3/8=66]"^Più mosso." e2 e | %20
w: lin- de, wie ein|Got- tes- hauch, _ _ die|Win- de und ich|
 !>!a3 =f z z fef | _b3 z2 z!<(! de=f!<)! | !>!=f3 e3!>(! d2 =c!>)! | =c3 z2 z!<(! c2 c!<)! | %24
w: jauch- ze: Win- * ters|Weh hast _ ein|En- de nun A-|de! und ich|
 !>!a3 =f z z[Q:1/4=72]"^poco sostenuto" f2 e |!>(! ^d3-!>)! d2 z |[Q:1/4=78]"^Tempo 1"!mf! e2 e | %27
w: jauch- ze: Win- ters|Weh _|hast ein|
 !>!f3 e z z"^cresc." e2 e |!<(! !>!=g3!<)! f z z!f! f2 f | g3- (2:3:2gg f z3/2 e/ | %30
w: En- de, hast ein|En- de hast ein|En- * de nun, A-|
 a3- !fermata!a2 !fermata!z | z3 | z9 | z9 ||[M:3/4]"^Chor"!p! e>e ee ee | =f4 e2 | e>e ed =cd | %37
w: de! _||||Glüht der Strahl der Som- mer-|son- ne|zit- tern rings die Lüf- te|
 e4- e z | e>e e!<(!e ee!<)! |!>(! (=g2 =f2)!>)! e z | e>e ed =cd | e4 z2 | z6 | %43
w: schwül, _|spricht das Herz in Lie- bes-|won- * ne:|auf zum Wal- de mild und|kühl!||
 z2 z2"^Chor"!p!!<(! ee | e3 e ee!<)! |!>(! e2!>)! e2 z2 | z6 | z2 z2"^Chor"!mf! d>c | %48
w: Un- ter|grü- nen Bu- chen-|zwei- gen||wir das|
 (c2 B)!p!B[Q:1/4=72]"^sostenuto" f>e | e^d !fermata!=d2 |!f![Q:3/8=66]"^Più mosso." e>e | %51
w: Haupt * zum Kus- se|nei- * gen,|und wir|
[M:9/8] !>!a3 =f z z fef | _b3 z2 z!<(! de=f!<)! | !>!=f3!>(! e3 d2!>)! =c | %54
w: ju- beln: du _ bist|mein, dein _ nur|bin ich, dein al-|
 =c3 z2 z!<(! c2 c!<)! | !>!a3 =f z z[Q:1/4=72]"^poco sostenuto" f2!>(! e | %56
w: lein, und wir|ju- beln du bist|
 ^d3-!>)! d2 z!mf![Q:1/4=78]"^a tempo" e2 e | !>!f3 e z z"^cresc." e2 e | %58
w: mein, _ dein nur|bin ich, dein nur|
 !>!=g3 f z z!f![Q:1/4=72]"^poco sostenuto" a^gf | edc !>!e3-!>(! e2 d!>)! | %60
w: bin ich, dein _ nur|bin _ ich, dein _ al-|
 B3- !fermata!B2 !fermata!z | z2 z | z9 | z2 z!p! e2 e e3 || %64
w: lein! _|||Welkt der Herbst!|
[M:3/4]!<(! .d.=c .BA ^G/B/ d/!<)!=f/ ||[M:9/8]!f! e3- e z z z2 z | z9 | z2 z z2 z!p! =c2 c | %68
w: Blatt um Blatt und stürmt _ es _|graus, _||färbt der|
 e3- e2 e =c2 c | e3 e3 e2 e |"^cresc." e2 d =g3 =f3 |!<(! e3-!<)! e2 z!mf! e2 e | %72
w: Wald _ sich bun- ter|wie- der, zieh' noch|ein- mal ich hin-|aus, _ zieh' noch|
 !>!=g2 =f!>(! e3 (e2 d)!>)! | =c z z z2 z4 | z2 z!p! =c3- c2 c |!>(! (=c2 A)!>)! =G z z z2 z | %76
w: ein- mal ich hin- *|aus;|rauscht _ es|schau- * rig|
 z z!pp! =c =f2 c- ccc | (=c2 A) =G z z z2 z | z9 | z6 |!p![Q:3/8=52]"^espressivo" e2 e | %81
w: ich seuf- ze _ still und|trau- * rig:|||fliehn so|
 f3 e3 d2 c ||[M:3/4]!>(! B2- B!>)! z[Q:1/4=63]!<(! Bf!<)! | (f2 e2) d2 | c4[Q:1/4=76]!mf! A>A | %85
w: schnell, o Wald leb|wohl, _ o _|Wald _ leb|wohl, Lenz und|
"^cresc." (B2 c2) d2 |!<(! e2 fg a2!<)! |!f![Q:1/4=63] (!>!c2 B2) B2 | %88
w: Som- * mer|freu- den- * voll|fliehn _ so|
 (!>!f2 e2)[Q:1/4=60]"^molto sustenuto" e2 |!>(! (e2 d2)!>)!!p! B2 | c4!pp! A2 | %91
w: schnell, _ so|schnell, _ o|Wald, o|
 c4[Q:1/4=56]"^rit." ed | c4 z2 | z2 z2!pp! e2 | a6 | c6 | !fermata!c6 |] %97
w: Wald leb _|wohl!|leb|wohl!|leb|wohl!|
V:2
 x3 | x9 | x9 | x9 | x9 | x9 | x9 ||[K:Db] x9 | x9 | x9 | x9 | x9 | x9 | x9 | x6 ||[K:A] x3 | x9 | %17
 x9 | x9 | x9 | x9 | x9 | x9 | x9 | x9 | x6 | x3 | x9 | x9 | x9 | x6 | x3 | x9 | x9 ||[M:3/4] x6 | %35
 x6 | x6 | x6 | x6 | x6 | x6 | x6 | x6 | x6 | x6 | x6 | x6 | x6 | x6 | x4 | x2 |[M:9/8] x9 | x9 | %53
 x9 | x9 | x9 | x9 | x9 | x9 | x9 | x6 | x3 | x9 | x9 ||[M:3/4] x6 ||[M:9/8] x9 | x9 | x9 | x9 | %69
 x9 | x9 | x9 | x9 | x9 | x9 | x9 | x9 | x9 | x9 | x6 | x3 | x9 ||[M:3/4] x6 | x6 | x6 | x6 | x6 | %87
 x6 | x6 | x6 | x6 | x6 | x6 | x6 | e6 | x6 | x6 |] %97
V:3
!p! A2 A | B3- B2 B A2 A | (B2 A) (G2 A)!<(! Bcd!<)! | (c2 d ^d2)!>(! e A2 F!>)! | F2 F G2 z A2 A | %5
w: Grünt der|Lenz _ auf Flur und|Hal- * de, _ glänzt _ der|Mai, _ _ der Mai im|Son- nen- schein, schwillt das|
 B3- B2 B A2 A | c3 c2 z!<(! c2 _d!<)! ||[K:Db]!mf! d3 A3 G2 G |!<(! (A2 f-!<)! f)e=d e2 B | %9
w: jun- * ge Grün im|Wal- de, kehr im|Tann so gern ich|ein, _ _ kehr im Tann so|
!>(! A2 A c3- c2!>)! c | d z z z2 z!p! A2 =A | B=AB dcB cB_A |!>(! =G3!>)! A z z!pp! A2 =A | %13
w: gern, so gern _ ich|ein. Durch die|Wip- * fel rau- * schen lin- * de,|lin- de, wie ein|
 B=AB d3 cB_A | =GAB A z z ||[K:A]!p! G2 G | G2 G G3- G2 G | G3 G2 z"^cresc." A2 A | %18
w: Got- * tes- hauch rau- schen die|Win- * * de,|durch die|Wip- fel rau- * schen|lin- de, wie ein|
 A2 A (d3- dc)B |!<(! A3!<)! G z z!f! e2 e | !>!=f3 =c z z c2 c | =f3 z2 z!<(! _B2 B!<)! | %22
w: Got- tes- hauch, _ _ die|Win- de und ich|jauch- ze: Win- ters|Weh hast ein|
 !>!_B3 B3!>(! B2 B!>)! | A=GA _BAG!<(! =c2 c!<)! | !>!=f3 =c z z c2 c |!>(! B3-!>)! B2 z | %26
w: En- de nun A-|de! Und ich jauch- * ze, und ich|jauch- ze: Win- ters|Weh _|
!mf! B2 B | !>!B3 c z z"^cresc." c2 c |!<(! !>!e3!<)! d z z!f! d2 d | d3- (2:3:2dd d z3/2 e/ | %30
w: hast ein|En- de, hast ein|En- de hast ein|En- * de nun, A-|
 e3- !fermata!e2 !fermata!z | z3 | z9 | z9 ||[M:3/4]!p! =c>c cc cc | =c4 c2 | B>B BB AB | %37
w: de! _||||Glüht der Strahl der Som- mer-|son- ne|zit- tern rings die Lüf- te|
 =c4- c z | =c>c c!<(!c cc!<)! |!>(! =c4!>)! c z | B>B BB AB | =c4 z2 | z6 | z2 z2!p!!<(! =cc | %44
w: schwül, _|spricht das Herz in Lie- bes-|won- ne:|auf zum Wal- de mild und|kühl!||Un- ter|
 d3 d dd!<)! |!>(! d2!>)! d2 z2 | z6 | z2 z2!mf! G>G | G3!p! B c>c | B2 !fermata!B2 |!f! e>e | %51
w: grü- nen Bu- chen-|zwei- gen||wir das|Haupt zum Kus- se|nei- gen,|und wir|
[M:9/8] !>!=f3 =c z z c2 c | =f3 z2 z!<(! _B2 B!<)! | !>!_B3!>(! B3 B2!>)! B | %54
w: ju- beln: du bist|mein, dein nur|bin ich, dein al-|
 A=GA _BAG!<(! =c2 c!<)! | !>!=f3 =c z z c2!>(! c | =B3-!>)! B2 z!mf! B2 B | %57
w: lein, und wir ju- * beln, und wir|ju- beln du bist|mein, _ dein nur|
 !>!B3 ^c z z"^cresc." c2 c | !>!e3 d z z!f! fed | cBA !>!c3-!>(! c2 B!>)! | %60
w: bin ich, dein nur|bin ich, dein _ nur|bin _ ich, dein _ al-|
 G3- !fermata!G2 !fermata!z | z2 z | z9 | z2 z!p! =c2 c B3 ||[M:3/4]!<(! .A.=G .=FE ^G A/!<)!=c/ || %65
w: lein! _|||Welkt der Herbst!|Blatt um Blatt und stürmt es _|
[M:9/8]!f! B3- B z z z2 z | z9 | z2 z z2 z!p! A2 A | B3- B2 B A2 A | B3 B3 _B2 B | %70
w: graus, _||färbt der|Wald _ sich bun- ter|wie- der, zieh' noch|
"^cresc." A2 A e3 d3 |!<(! =c3-!<)! c2 z!mf! ^c2 c | !>!c2 d!>(! =c3 B3!>)! | %73
w: ein- mal ich hin-|aus, _ zieh' noch|ein- mal ich hin-|
 =c z z z2 z!p! =G2 ^G | A^GA =cBA BA=G |!>(! ^F3!>)! =G z z!pp! G2 ^G | AGA =c3 BA=G | %77
w: aus; durch die|Wip- * fel rauscht _ es schau- * rig,|schau- rig und ich|seuf- * ze still, still _ und|
 =F=GA G z z z2 z | z9 | z6 |!p!"^espressivo" B2 B | B3 A3 B2 A || %82
w: trau- * * rig:|||fliehn so|schnell, o Wald leb|
[M:3/4]!>(! G2- G!>)! z!<(! B2!<)! | c4 B2 | A4!mf! A>A |"^cresc." A4 A2 |!<(! A2 d2 c2!<)! | %87
w: wohl, _ o|Wald leb|wohl, Lenz und|Som- mer|freu- den- voll|
!f! !>!A4 A2 | !>!B4 ^A2 |!>(! (c2 B2)!>)!!p! F2 | A4!pp! A2 | A4 cB | A4!pp! c2 | c4 c2 | c6 | %95
w: fliehn so|schnell, so|schnell, _ o|Wald, o|Wald leb *|wohl! o|Wald leb|wohl!|
 A6 | !fermata!A6 |] %97
w: leb|wohl!|
V:4
 x3 | x9 | x9 | x9 | x9 | x9 | x9 ||[K:Db] x9 | x9 | x9 | x9 | x9 | x9 | x9 | x6 ||[K:A] x3 | x9 | %17
 x9 | x9 | x9 | x9 | x9 | x9 | x9 | x9 | x6 | x3 | x9 | x9 | x17/2 d/ | c3- c2 x | x3 | x9 | x9 || %34
[M:3/4] A>A AA AA | A4 =G2 | =G>G GG AG | =G4- G x | x6 | x6 | x6 | x6 | x6 | x2 x2 =GG | %44
 ^G3 G AA | B2 G2 x2 | x6 | x6 | x6 | x4 | x2 |[M:9/8] x9 | x9 | x9 | x9 | x9 | x9 | x9 | x9 | x9 | %60
 x6 | x3 | x9 | x9 ||[M:3/4] x6 ||[M:9/8] x9 | x9 | x9 | x9 | x9 | x9 | x9 | x9 | x9 | x9 | x9 | %76
 x9 | x9 | x9 | x6 | ^G2 G | G3 A3 B2 A ||[M:3/4] x6 | x6 | x6 | x6 | x6 | x6 | x6 | x6 | x6 | x6 | %92
 x6 | x6 | x6 | x6 | x6 |] %97
V:5
!p! A,2 A, | G,3- G,2 G, A,2 A, | (G,2 F,) (E,2 F,)!<(! G,2 G,!<)! | (E,3 A,2)!>(! A, A,2 ^A,!>)! | %4
w: Grünt der|Lenz _ auf Flur und|Hal- * de, _ glänzt der|Mai, _ der Mai im|
 C2 B, G,2 z A,2 A, | G,3- G,2 G, =G,2 G, | =G,3 G,2 z!<(! C,2 _D,!<)! || %7
w: Son- nen- schein, schwillt das|jun- * ge Grün im|Wal- de, kehr im|
[K:Db]!mf! A,2 A, A,G,F, E,2 E, |!<(! (=D,2 _C-!<)! C)B,A, G,2 G, |!>(! G,2 G, G,3- G,2!>)! G, | %10
w: Tann so gern, _ so gern ich|ein, _ _ kehr im Tann so|gern, so gern _ ich|
 F, z z z2 z!p! F,2 F, | G,F,G, B,A,G, A,G,F, |!>(! =E,3!>)! F, z z!pp! F,2 F, | %13
w: ein. Durch die|Wip- * fel rau- * schen lin- * de,|lin- de, wie ein|
 G,F,G, B,3 A,G,F, | E,F,G, F, z z ||[K:A]!p! ^E,2 E, | F,2 F, F,3- F,2 F, | %17
w: Got- * tes- hauch rau- schen die|Win- * * de,|durch die|Wip- fel rau- * schen|
 F,3 ^E,2 z"^cresc." =E,2 E, | F,2 F, A,3- A,2 A, |!<(! E,3!<)! E, z z!f! E,2 B, | %20
w: lin- de, wie ein|Got- tes- hauch, _ die|Win- de, und ich|
 !>!=C3 A, z z A,^G,A, | D3 z2 z!<(! _B,2 B,!<)! | !>!=G,3 G,3!>(! =F,2 G,!>)! | %23
w: jauch- ze: Win- * ters|Weh hast ein|En- de nun A-|
 A,=G,A, _B,A,G,!<(! =F,E,G,!<)! | !>!=C3 A, z z A,2 A, |!>(! A,3-!>)! A,2 z |!mf! G,2 G, | %27
w: de! Und ich jauch- * ze, und _ ich|jauch- ze: Win- ters|Weh _|hast ein|
 !>!G,3 A, z z"^cresc." C2 C |!<(! !>!C3!<)! D z z!f! B,2 B, | B,3- (2:3:2B,B, A, z3/2 G,/ | %30
w: En- de, hast ein|En- de hast ein|En- * de nun, A-|
 A,3- !fermata!A,2 !fermata!z |!mf!"^Solo" E,2 E, | E3- E2 =C A,B,C | (E,2 =F,) E,6 || %34
w: de! _|Glüht der|Strahl _ der Som- * mer-|son- * ne,|
[M:3/4]!p! E,>E, E,E, E,E, | =F,4 E,2 | =F,>F, F,F, F,F, | E,4- E, z | =G,>G, G,!<(!G, ^G,G,!<)! | %39
w: glüht der Strahl der Som- mer-|son- ne,|zit- tern rings die Lüf- te|schwül, _|spricht das Herz in Lie- bes-|
!>(! A,4!>)! =G, z | =F,>F, F,F, F,F, | E,4!mf!"^Solo" E,>E, | E3 D =CA, | =G,>A, G,2!p!!<(! E,E, | %44
w: won- ne:|auf zum Wal- de mild und|kühl! Un- ter|grü- nen Bu- chen-|zwei- * gen, un- ter|
 E,3 E, E,E,!<)! |!>(! (3E,^G,F,!>)! E,2"^Solo" E,>E, | (E2 D)B, G,>F, | %47
w: grü- nen Bu- chen-|zwei- * * gen wir das|Haupt * zum Kus- se|
!>(! F,2!>)! E,2!mf! E,>E, | E,3!p! F, =G,>G, | F,2 !fermata!E,2 |!f! E,>B, | %51
w: nei- gen, wir das|Haupt zum Kus- se|nei- gen,|und wir|
[M:9/8] !>!=C3 A, z z A,^G,A, | D3 z2 z!<(! _B,2 B,!<)! | !>!=G,3!>(! G,3 =F,2!>)! G, | %54
w: ju- beln: du _ bist|mein, dein nur|bin ich, dein al-|
 A,=G,A, _B,A,G,!<(! =F,E,G,!<)! | !>!=C3 A, z z A,2!>(! A, | A,3-!>)! A,2 z!mf! ^G,2 G, | %57
w: lein, und wir ju- * beln, und _ wir|ju- beln du bist|mein, _ dein nur|
 !>!G,3 A, z z"^cresc." C2 C | !>!C3 D z z!f! D,E,F, | G,2 A, !>!F,3-!>(! F,2 F,!>)! | %60
w: bin ich, dein nur|bin ich, dein _ nur|bin ich, dein _ al-|
 E,3- !fermata!E,2 !fermata!z | z2 z | z9 | z2 z!p! E,2 E, E,3 || %64
w: lein! _|||Welkt der Herbst!|
[M:3/4]!<(! .=F,.E, .D,=C, B,,/D,/ F,/!<)!A,/ ||[M:9/8]!f! G,3- G, z z z2 z | z9 | %67
w: Blatt um Blatt und stürmt _ es _|graus, _||
 z2 z z2 z!p! A,2 A, | =G,3- G,2 G, A,2 A, | =G,3 G,3 G,2 G, |"^cresc." =F,2 F, _B,3 A,3 | %71
w: färbt der|Wald _ sich bun- ter|wie- der, zieh' noch|ein- mal ich hin-|
!<(! =G,3-!<)! G,2 z!mf! _B,2 B, | !>!_B,2 A,!>(! =G,3 =F,3!>)! | E, z z z2 z!p! E,2 E, | %74
w: aus, _ zieh' noch|ein- mal ich hin-|aus; durch die|
 =F,E,F, A,=G,F, G,F,E, |!>(! ^D,3!>)! E, z z!pp! E,2 E, | =F,E,F, A,3 =G,F,E, | %77
w: Wip- * fel rauscht _ es schau- * rig,|schau- rig und ich|seuf- * ze still, still _ und|
 =D,E,=F, E, z z!p! E,2 E, |!>(! =F,3!>)! E,3!>(! A,2!>)! F, | E,3- E,2 z | %80
w: trau- * * rig: Lenz und|Som- mer freu- den-|voll _|
!p!"^espressivo" E,2 E, | E,3 E,3 E,2 E, ||[M:3/4]!>(! E,2- E,!>)! z!<(! F,2!<)! | F,4 F,2 | %84
w: fliehn so|schnell, o Wald leb|wohl, _ o|Wald leb|
 F,4!mf! A,>A, |"^cresc." (A,2 =G,2) F,2 |!<(! E,2 E,2 E,2!<)! |!f! !>!^D,4 F,2 | !>!^G,4 =G,2 | %89
w: wohl, Lenz und|Som- * mer|freu- den- voll|fliehn so|schnell, so|
!>(! (=G,2 F,2)!>)!!p! =D,2 | E,4!pp! F,2 | E,4 G,2 | A,4!pp! A,2 | A,4 A,2 | A,6 | E,6 | %96
w: schnell, _ o|Wald, o|Wald leb|wohl! o|Wald leb|wohl!|leb|
 !fermata!E,6 |] %97
w: wohl!|
V:6
!p! E,2 E, | E,2 E, E,3 E,3 | E,3 E,2 z!<(! D,C,B,,!<)! | (A,,2 B,, ^B,,2)!>(! C, F,2 E,!>)! | %4
w: Grünt der|Lenz auf Flur und|Hal- de, glänzt _ der|Mai, _ _ der Mai im|
 ^A,,2 =B,, E,2 z!pp! E,2 E, | E,2 E, E,3- E,2 E, | A,,3 A,,2 z!<(! C,2 _D,!<)! || %7
w: Son- nen- schein, schwillt das|jun- ge Grün _ im|Wal- de, kehr im|
[K:Db]!mf! (A,,3 A,3) A,2 A, |!<(! (F,3!<)! B,,3) E,2 E, |!>(! A,,2 A,, A,,3- A,,2!>)! A,, | %10
w: Tann _ gern ich|ein, _ kehr im|Tann so gern, _ ich|
 D,!p!C,D, F,E,D, D,C,D, | D,3 D,6- | D,!pp!C,D, D,A,G, F,E,D, | D,3 D,6- | D,3- D, z z || %15
w: ein. Durch die Wip- * fel rau- * schen|lin- de,|_ wie ein Got- * tes- hauch, _ die|Win- de,|_ _|
[K:A]!p! C,2 C, | D,2 D, (B,,C,D, B,,C,)D, | C,3 C,2 z"^cresc." C,2 C, | D,2 D, B,,C,D, B,3 | %19
w: durch die|Wip- fel rau- * * * * schen|lin- de, wie ein|Got- tes- hauch _ _ die|
!<(! E,3!<)! E, z z!f! E,2 E, | !>!A,,3 A, z z z2 z | =G,^F,G, D_B,G,!<(! =F,E,D,!<)! | %22
w: Win- de und ich|jauch- ze:|Win- * ters Weh hast ein En- de, ein|
 !>!=C,3 C,3!>(! D,2 E,!>)! | =F,E,F, =G,F,E,!<(! D,=C,_B,,!<)! | !>!A,,3 A, z z A,,2 A,, | %25
w: En- de nun A-|de! Und ich jauch- * ze, und _ ich|jauch- ze: Win- ters|
!>(! =B,,3-!>)! B,,2 z |!mf! E,2 E, | !>!D,3 C, z z"^cresc." A,2 A, | %28
w: Weh _|hast ein|En- de, hast ein|
!<(! !>!^A,3!<)! B, z z!f! B,2 B, | E,3- (2:3:2E,E, E, z3/2 E,/ | E,3- !fermata!E,2 !fermata!z | %31
w: En- de hast ein|En- * de nun, A-|de! _|
 z3 | z9 | z9 ||[M:3/4]!p! A,,>A,, A,,A,, A,,A,, | (=F,,2 A,,2) =C,2 | =G,,>G,, G,,G,, G,,G,, | %37
w: |||Glüht der Strahl der Som- mer-|son- * ne|zit- tern rings die Lüf- te|
 =C,4- C, z | =C,>C, C,!<(!C, C,C,!<)! |!>(! (=F,,2 A,,2)!>)! =C, z | =G,,>G,, G,,G,, G,,G,, | %41
w: schwül, _|spricht das Herz in Lie- bes-|won- * ne:|auf zum Wal- de mild und|
 =C,4 z2 | z6 | z2 z2!p!!<(! =C,C, | B,,3 B,, A,,A,,!<)! |!>(! G,,2!>)! B,,2 z2 | z6 | %47
w: kühl!||Un- ter|grü- nen Bu- chen-|zwei- gen||
 z2 z2!mf! B,,>C, | D,3!p! D, ^A,,>A,, | B,,2 !fermata!^G,,2 |!f! E,>E, | %51
w: wir das|Haupt zum Kus- se|nei- gen,|und wir|
[M:9/8] !>!A,,3 A, z z z2 z | =G,F,G, D_B,G,!<(! =F,E,D,!<)! | !>!=C,3!>(! C,3 D,2!>)! E, | %54
w: ju- beln:|dein _ nur bin _ ich, dein _ nur|bin ich, dein al-|
 =F,E,F, =G,F,E,!<(! D,=C,_B,,!<)! | !>!A,,3 A, z z A,,2!>(! A,, | =B,,3-!>)! B,,2 z!mf! E,2 E, | %57
w: lein, und wir ju- * beln, und _ wir|ju- beln du bist|mein, _ dein nur|
 !>!D,3 C, z z"^cresc." A,2 A, | !>!^A,3 B, z z!f! B,,C,D, | E,^E,F, !>!B,,3-!>(! B,,2 D,!>)! | %60
w: bin ich, dein nur|bin ich, dein _ nur|bin _ ich, dein _ al-|
 =E,3- !fermata!E,2 !fermata!z |!p! E,2 E, | E,3- E,2 E, A,2 =F, | E,3 E,6 || %64
w: lein! _|Welkt der|Herbst * und fällt her-|nie- der|
[M:3/4]!<(! .B,,.=C, .D,A,, E,>D,!<)! ||[M:9/8]!f! E,3- E, z z!p! E,2 E, | E,3- E,2 E, A,2 =F, | %67
w: Blatt um Blatt und stürmt es|graus, _ färbt der|Wald _ sich bun- ter|
 E,3 E,6- | E,6- E,3- | E,6 =C,2 C, |"^cresc." =F,2 F, ^C,3 D,3 |!<(! =G,3-!<)! G,2 z!mf! G,2 G, | %72
w: wie- der,|_ _|* zieh' noch|ein- mal ich hin-|aus, _ zieh' noch|
 !>!=F,2 F,!>(! =G,3 =G,,3!>)! | =C,!p!B,,C, E,D,C, C,B,,C, | =C,3 C,6- | %75
w: ein- mal ich hin-|aus; durch die Wip- * fel rauscht _ es|schau- rig|
 C,!pp!B,,=C, C,=G,=F, E,D,C, | =C,3 C,6- | C,3- C, z z z2 z | z9 | z6 |!p!"^espressivo" E,2 E, | %81
w: _ und ich seuf- * ze still _ und|trau- rig:|_ _|||fliehn so|
 D,3 C,3 G,,2 A,, ||[M:3/4]!>(! E,2- E,!>)! z!<(! D,2!<)! | ^A,,4 B,,D, | F,4!mf! F,>F, | %85
w: schnell, o Wald leb|wohl, _ o|Wald leb _|wohl, Lenz und|
"^cresc." (F,2 E,2) D,2 |!<(! C,2 B,,2 A,,2!<)! |!f! !>!F,,4 ^D,2 | !>!=D,4 C,2 | %89
w: Som- * mer|freu- den- voll|fliehn so|schnell, so|
!>(! (^A,,2 B,,2)!>)!!p! D,2 | E,4!pp! F,2 | E,4 E,2 | E,4 z2 | z2 z2!pp! E,2 | E,6 | A,,6 | %96
w: schnell, _ o|Wald, o|Wald leb|wohl!|leb|wohl!|leb|
 !fermata!A,,6 |] %97
w: wohl!|
V:7
 x3 | x9 | x9 | x9 | x9 | x9 | x9 ||[K:Db] x9 | x9 | x9 | x9 | x9 | x9 | x9 | x6 ||[K:A] x3 | x9 | %17
 x9 | x9 | x9 | x9 | x9 | x9 | x9 | x9 | x6 | x3 | x9 | x9 | x9 | A,,3- A,,2 x | x3 | x9 | x9 || %34
[M:3/4] x6 | x6 | x6 | x6 | x6 | x6 | x6 | x6 | x6 | x6 | x6 | x6 | x6 | x6 | x6 | x4 | x2 | %51
[M:9/8] x9 | x9 | x9 | x9 | x9 | x9 | x9 | x9 | x9 | x6 | x3 | x9 | x9 ||[M:3/4] x6 ||[M:9/8] x9 | %66
 x9 | x9 | x9 | x9 | x9 | x9 | x9 | x9 | x9 | x9 | x9 | x9 | x9 | x6 | x3 | x9 ||[M:3/4] x6 | x6 | %84
 x6 | x6 | x6 | x6 | x6 | x6 | x6 | x4 E,,2 | A,,4 x2 | x6 | A,,6 | A,,6 | A,,6 |] %97

